**kern	**kern
*staff2	*staff1
*clefG2	*clefG2
*k[b-]	*k[b-]
*M2/4	*M2/4
=-	=-
8r	8cc'
=373	=373
8r	(8ff
(8a	4cc)
8gL	.
8fJ)	(8ff
=374	=374
8r	8gg
(8e	4cc)
8dL	.
8cJ	(8gg
=375	=375
8fL	8aaL
8c#J	8eeJ
8dL)	8ffL)
8B-'J	8gg'J 8bb-'
=376	=376
4.c	(4ff 4aa
.	8eeL) 8gg
8r	8ccc'J
=377	=377
8F' 8f'	8cc' 8aa' 8ccc'
(4G 4g	(4cc 4ee 4bb-
8A) 8a	8cc) 8ff 8aa
=378	=378
8B-' 8b-'	8dd' 8ff' 8bb-' 8ddd'
(4B- 4b-	(4ee 4gg 4ddd- 4eee
8B) 8b	8ff) 8aa- 8ddd 8fff
=379	=379
*	*^
8cL 8cc	8aaL	8ffL
8cJ 8cc	8aaJ	8ffJ
8cL 8b-	(16ggLL	4ee
.	16ff	.
8cJ 8b-	16gg	.
.	16aaJJ)	.
*	*v	*v
=380	=380
*	*^
8fL 8a	4ff	4ff
8cJ	.	.
8F	8r	4r
8r	8g	.
*	*v	*v
=	=
*-	*-
